X:234
T:Polska fr{\aa}n Sm{\aa}land
R:sl\"angpolska
H:jfr #50
A:Sm{\aa}land
B:ur Johan Magnus Theorins notbok fr{\aa}n V\"axj\"o
Z:id:hn-sp-234
M:3/4
L:1/16
K:G
G4 F4 G4 | B2d2 c2BA A2B2 | G2G2 F2F2 G2G2 | B2d2 c2BA B4 |
D2EF G2FG A2GA | B2AB c2AG F2D2 | D2EF G2FG A2GA | B2AB c2AG F2D2 |
D2EF G2A2 B2G2 | A2GF G8 :|
K:D
|: d4 c4 d4 | f2a2 g2fe e2f2 | d2d2 c2c2 d2d2 | f2a2 g2fe f4 |
A2Bc d2cd e2de | f2ef gfed c2A2 | A2Bc d2cd e2de | f2ef gfed c2A2 |
A2Bc d2e2 f2d2 | e2dc d8 :|

